X: 1
T: The King's Reel
R: reel
M: 4/4
L: 1/8
K: Amix =g
B, | A,2 EA, FA,EA,|~A,2 ED =CA,A,G,| A,2 EA, FA,EF| G2 DC B,G,G, :|
d | cA A/A/A eaed|cA A/A/A BGBd|cA A/A/A eaef|ged=c BGBd|
cA A/A/A eaed|cA A/A/A BGBd|=c2 dc B2 dB|1AGED B,G,G,||2 dgBg dBGB |]
